X:8
T:Macaroni THO3.008, The
O:England;London
M:2/4
L:1/8
N:A macaroni was an 18thC flashy dresser.
Z:vmp. Peter Dunk 2011.from a transcription by Fynn Titford-Mock 2006-9
B:Thompson's Compleat Collection of 200 Favourite Country Dances Vol. III.1765-72
Q:1/4=140
K:D
de/(f/ a)f|dAFA|(BG)(GE)|(BG)(GE)|\
de/(f/ a)f|dAFA|(AF)(FD)|(AF)(FD):|
|:EA/(B/ c)A|(ec)(cA)|(fd)(dB)|(fd)(dB)|\
g(e/f/ g)d|f(d/e/ f)d|e(c/d/ e)c|d2D2:|

